!!!!SEGMENT: pl-sa--17-a-i-17--001-001_janicki-mikolaj--rondo-z-krakowiaka-allegro.krn
!!!cenid: 18xx:347
!!!COM: Janicki, Mikołaj
!!!COM-rismid: pe41009558
!!!CDT: <1805->1844
!!!CNT: Polish
!!!OPR: Rondo z Krakowiaka
!!!OTL: Allegro
!!!OMV: 001
!!!PDT:
!!!AGN: Secular
!!!SMS-siglum: PL-SA
!!!SMS-shelfmark: 17/A I 17
!!!SMS-shelfwork: 001-001 M
!!!SMS-variant:
!!!SMS-altvar:
!!!NIFC-rismid: 1001065729
!!!URL-scan: http://bc.bdsandomierz.pl/dlibra/publication/1283/edition/1251/content
!!!ONB-nifc: UWAGA: 3 utwory: Allegro, utwór w g-moll, utwór w G-dur
**kern	**kern	**dynam
*part1	*part1	*part1
*staff2	*staff1	*
*Ipiano	*Iempty	*
*I"Piano	*	*
*I'Pno.	*	*
*clefF4	*clefG2	*
*k[f#]	*k[f#]	*
*G:	*G:	*
*M2/4	*M2/4	*
=1	=1	=1
!	!LO:SIC:o=:v:niekonsekwentny zapis caud	!
!	!LO:SIC:o=:v:niekonsekwentny zapis caud	!
!	!LO:TX:a:i:rj:t=Allegro	!
8G\L 8B\	8g\L	.
8d\J	8g\J	.
!	!LO:SIC:o=:v:znak powtórzenia grupy	!
*rep	*	*
8G\L 8B\	8b\L	.
8d\J	8cc\J	.
*Xrep	*	*
=2	=2	=2
*rep	*	*
!	!LO:SIC:o=:v: znak powtórzenia taktu	!
8G\L 8B\	8dd\L	.
!	!LO:SIC:o=:v:nad ozdobnikiem #	!
8d\J	8cc#XsS\J	.
8G\L 8B\	8ee\L	.
8d\J	8dd\J	.
*Xrep	*	*
=3	=3	=3
*rep	*	*
8G\L 8B\	8dd\L	.
8d\J	8cc#X\J	.
8G\L 8B\	8ee\L	.
8d\J	8dd\J	.
*Xrep	*	*
=4	=4	=4
!	!LO:SIC:o=:v:w partii lewej ręki brak zaznaczonej repetycji	!
!	!LO:SIC:o=:v:takt powtórzony repetycjąs	!
2ryy	8dd\Lyy	.
.	8cc#X\Jyy	.
.	8ee\Lyy	.
.	8dd\Jyy	.
=5	=5	=5
8A\L 8c\	8dd\L	.
.	8qee/	.
8d\J	8dd\J	.
8D\L 8A\	8.ccn\L	.
8d\J	.	.
.	16a\Jk	.
=6	=6	=6
8G\L 8B\	8g/	.
8d\J	4b/	.
!	!LO:SIC:o=:v:znak powtórzenia grupy	!
*rep	*	*
8G\L 8B\	.	.
8d\J	16b/LL	.
.	16cc/JJ	.
*Xrep	*	*
=7	=7	=7
8A\L 8c\	8dd\L	.
.	8qee/	.
8d\J	8dd\J	.
8D\L 8A\	8.cc\L	.
8d\J	.	.
.	16a\Jk	.
=8	=8	=8
8G\L 8B\	(8a/L	.
8d\J	8g/J)	.
4G\ 4B\	4g/	.
!!LO:LB:g=original
=9	=9	=9
!	!LO:SIC:o=:v:f=f.&colon;global	!
8GG/L	8gg\L	f
8BB/J 8D/ 8G/	8gg\sSJ	.
8GG/L	8gg\L 8bb\	.
8G/J	8aa\J 8ccc\	.
=10	=10	=10
8GG/L	8bb\L 8ddd\	.
8G/J	8aa#X\J 8ccc#X\	.
8GG/L	8cccn\L 8eee\	.
8BB/J 8D/ 8G/	8bb\J 8ddd\	.
=11	=11	=11
!	!LO:SIC:o=:v: znak powtórzenia taktu	!
!	!LO:SIC:o=:v: znak powtórzenia taktu	!
*rep	*rep	*
8GG/L	8bb\L 8ddd\	.
8G/J	8aa#X\J 8ccc#X\	.
8GG/L	8cccn\L 8eee\	.
8BB/J 8D/ 8G/	8bb\J 8ddd\	.
*Xrep	*Xrep	*
=12	=12	=12
!	!LO:SIC:o=:v: znak powtórzenia taktu	!
!	!LO:SIC:o=:v: znak powtórzenia taktu	!
*rep	*rep	*
8GG/L	8bb\L 8ddd\	.
8G/J	8aa#X\J 8ccc#X\	.
8GG/L	8cccn\L 8eee\	.
8BB/J 8D/ 8G/	8bb\J 8ddd\	.
*Xrep	*Xrep	*
=13	=13	=13
8DD/L	8bb\L 8ddd\	.
.	8qaa/ 8qccc/	.
8D/J	8bb\J 8ddd\	.
8DD/L	8.aa\L 8.ccc\	.
8FF#/J 8AA/ 8D/	.	.
.	16ff#\Jk 16aa\	.
=14	=14	=14
8GG/L	8gg\	.
8BB/J 8D/ 8G/	4gg\ 4bb\	.
!	!LO:SIC:o=:v:znak powtórzenia grupy	!
*rep	*	*
8GG/L	.	.
8BB/J 8D/ 8G/	16gg\LL 16bb\	.
.	16aa\JJ 16ccc\	.
*Xrep	*	*
=15	=15	=15
8DD/L	8bb\L 8ddd\	.
8D/J	8bb\J 8ddd\	.
8DD/L	8.aa\L 8.ccc\	.
8FF#/J 8AA/ 8D/	.	.
.	16ff#\Jk 16aa\	.
=16	=16	=16
8G\L	8.cc\L 8.aa\	.
8D\J	.	.
.	16b\Jk 16gg\	.
4GG/	4b\ 4gg\	.
=17||	=17||	=17||
*clefG2	*	*
!LO:TX:a:i:t=Dol.	!LO:TX:a:i:t=Fine	!
8e/L 8g/	8aa\L	.
.	8qbb/	.
8A/J	8aa\J	.
!	!LO:SIC:o=:v:znak powtórzenia grupy	!
*rep	*	*
8e/L 8g/	8.gg\L	.
8A/J	.	.
.	16ee\Jk	.
*Xrep	*	*
!!LO:LB:g=original
=18	=18	=18
8d/L 8f#/	8dd\	.
8A/J	4ff#\	.
!	!LO:SIC:o=:v:znak powtórzenia grupy	!
*rep	*	*
8d/L 8f#/	.	.
8A/J	(16ee\LL	.
.	16dd\JJ)	.
*Xrep	*	*
=19	=19	=19
8e/L 8g/	(16dd\LL	.
.	16cc#X\	.
!	!LO:SIC:o=:v:znak powtórzenia grupy (pomiędzy grupami)	!
8A/J	16b\	.
.	16a\JJ)	.
*rep	*	*
8e/L 8g/	(16g#X\LL	.
.	16a\	.
8A/J	16b\	.
.	16cc#\JJ)	.
*Xrep	*	*
=20	=20	=20
8d/L 8f#/	(16dd\LL	.
.	16ee\	.
8A/J	16ff#\	.
.	16ggn\JJ)	.
!	!LO:SIC:o=:v:znak powtórzenia grupy	!
*rep	*	*
8d/L 8f#/	(16aa\LL	.
.	16gg#X\	.
8A/J	16bb\	.
.	16aa\JJ)	.
*Xrep	*	*
=21	=21	=21
8e/L 8g/	(16aa\LL	.
.	16bb\	.
8A/J	16aa\	.
.	16gg#X\JJ)	.
!	!LO:SIC:o=:v:znak powtórzenia grupy	!
*rep	*	*
8e/L 8g/	(16aa\LL	.
.	16bb\	.
8A/J	16ccc#X\	.
.	16aa\JJ)	.
*Xrep	*	*
=22	=22	=22
8d/L 8f#/	8ddd\	>
8A/J	4fff#\	.
!	!LO:SIC:o=:v:znak powtórzenia grupy	!
*rep	*	*
8d/L 8f#/	.	]
8A/J	(16eee\LL	.
.	16ddd\JJ)	.
*Xrep	*	*
=23	=23	=23
8e/L 8g/	16ddd\LL	.
.	16ccc#X\	.
8A/J	16bb\	.
.	16aa\JJ	.
!	!LO:SIC:o=:v:znak powtórzenia grupy	!
*rep	*	*
8e/L 8g/	16gg#X\LL	.
.	16aa\	.
8A/J	16bb\	.
.	16ccc#X\JJ	.
*Xrep	*	*
=24	=24	=24
8d/L 8f#/	4ddd\	.
8a/J	.	.
8cn/L 8f#/	4r	.
8a/J	.	.
!!LO:LB:g=original
=25	=25	=25
!	!LO:SIC:o=:v:p=p.	!
16B/LL	8.ddd#X\L	p
16a/	.	.
16f#/	.	.
16a/JJ	16ccc\Jk	.
!	!LO:SIC:o=:v:znak powtórzenia grupy	!
*rep	*	*
16B/LL	8bb\L	.
16a/	.	.
16f#/	8aa\J	.
16a/JJ	.	.
*Xrep	*	*
=26	=26	=26
16e/LL	8ee\	.
16b/	.	.
16g/	4gg\	.
16b/JJ	.	.
!	!LO:SIC:o=:v:znak powtórzenia grupy	!
*rep	*	*
16e/LL	.	.
16b/	.	.
16g/	16ff#\LL	.
16b/JJ	16ee\JJ	.
*Xrep	*	*
=27	=27	=27
.	8qee/	.
16e/LL	8.eee\L	.
16ddn/	.	.
16b/	.	.
16dd/JJ	16eee\Jk	.
!	!LO:SIC:o=:v:znak powtórzenia grupy	!
*rep	*	*
16e/LL	8dddn\L	.
16dd/	.	.
16b/	8bb\J	.
16dd/JJ	.	.
*Xrep	*	*
=28	=28	=28
16e/LL	8.ddd\L	.
16cc/	.	.
16a/	.	.
16cc/JJ	16ccc\Jk	.
!	!LO:SIC:o=:v:znak powtórzenia grupy	!
*rep	*	*
16e/LL	4ccc\	.
16cc/	.	.
16a/	.	.
16cc/JJ	.	.
*Xrep	*	*
=29	=29	=29
.	8qdd/	.
16d/LL	8.ddd\L	.
16cc/	.	.
16a/	.	.
16cc/JJ	16ddd\Jk	.
!	!LO:SIC:o=:v:znak powtórzenia grupy	!
*rep	*	*
16d/LL	8ccc\L	.
16cc/	.	.
16a/	8aa\J	.
16cc/JJ	.	.
*Xrep	*	*
=30	=30	=30
16d/LL	8gg\	.
16b/	.	.
16g/	4bb\	.
16b/JJ	.	.
!	!LO:SIC:o=:v:znak powtórzenia grupy	!
*rep	*	*
16d/LL	.	.
16b/	.	.
16g/	16aa\LL	.
16b/JJ	16gg\JJ	.
*Xrep	*	*
=31	=31	=31
8e/L 8g/	16gg\LL	.
.	(16ff#\	.
8A/J	16ee\	.
.	16dd\JJ)	.
!	!LO:SIC:o=:v:znak powtórzenia grupy	!
*rep	*	*
8e/L 8g/	(16cc#X\LL	.
.	16dd\	.
8A/J	16ee\	.
.	16cc#\JJ)	.
*Xrep	*	*
!!LO:PB:g=original
=32	=32	=32
!	!LO:SIC:o=:v:f=f	!
8d/L 8f#/	16dd\LL	f
.	16ee\	.
8a/J	16ff#\	.
.	16gg\JJ	.
!	!LO:SIC:o=:v:znak powtórzenia grupy	!
*rep	*	*
8d/L 8f#/	16aa\LL	.
.	16bb\	.
8a/J	16ccc#X\	.
.	16ddd\JJ	.
*Xrep	*	*
=33	=33	=33
8A/L 8e/	16ddd\LL	.
.	16ccc#X\	.
8e/J 8g/	16bb\	.
.	16aa\JJ	.
!	!LO:SIC:o=:v:znak powtórzenia grupy	!
*rep	*	*
8A/L 8e/	16gg#X\LL	.
.	16aa\	.
8e/J 8g/	16ggn\	.
.	16ee\JJ	.
*Xrep	*	*
=34	=34	=34
8d/L 8f#/	16dd\LL	.
.	16ee\	.
8f#/J 8a/	16ff#\	.
.	16gg\JJ	.
!	!LO:SIC:o=:v:znak powtórzenia grupy	!
*rep	*	*
8d/L 8f#/	16aa\LL	.
.	16bb\	.
8f#/J 8a/	16ccc#X\	.
.	16ddd\JJ	.
*Xrep	*	*
=35	=35	=35
8A/L 8e/	16ddd\LL	.
.	16ccc#X\	.
8e/J 8g/	16bb\	.
.	16aa\JJ	.
!	!LO:SIC:o=:v:znak powtórzenia grupy	!
*rep	*	*
8A/L 8e/	16gg#X\LL	.
.	16aa\	.
8e/J 8g/	16ggn\	.
.	16ee\JJ	.
*Xrep	*	*
=36	=36	=36
8d/L 8f#/	4dd\	.
8f#/J 8a/	.	.
8d/ 8f#/	8r	.
8r	16dd\LL	.
.	16cc#X\JJ 16ee\	.
*clefF4	*	*
!!LO:LB:g=original
=37	=37	=37
8D\L	8dd'\L 8ff#\	.
8d\J	(16dd\L 16ff#\	.
.	16ee\JJ) 16gg\	.
!	!LO:SIC:o=:v:znak powtórzenia grupy	!
*rep	*	*
8D\L	8ff#'\L 8aa\	.
8d\J	(16ff#\L 16aa\	.
.	16gg\JJ) 16bb\	.
*Xrep	*	*
=38	=38	=38
16D\LL	4aa\ 4cccn\	.
16d\	.	.
16c#X\	.	.
16d\JJ	.	.
8D\	8r	.
8r	(16dd\LL	.
.	16cc#X\JJ) 16ee\	.
=39	=39	=39
8D\L	8dd'\L 8ff#\	.
8d\J	(16dd\L 16ff#\	.
.	16ee\JJ) 16gg\	.
!	!LO:SIC:o=:v:znak powtórzenia grupy	!
*rep	*	*
8D\L	8ff#'\L 8aa\	.
8d\J	(16ff#\L 16aa\	.
.	16gg\JJ) 16bb\	.
*Xrep	*	*
=40	=40	=40
16D\LL	4.aa\ 4.cccn\	.
16d\	.	.
16c#X\	.	.
16d\JJ	.	.
8D\L	.	.
8d\J	8gg#X\ 8bb\	.
=41	=41	=41
8D\L	8aa\L 8cccn\	.
8d\J	8gg#X\ 8bb\	.
!	!LO:SIC:o=:v:znak powtórzenia grupy	!
*rep	*	*
8D\L	8aa\ 8ccc\	.
8d\J	8gg#\J 8bb\	.
*Xrep	*	*
=42	=42	=42
16r	8aa\ 8ccc\	f
16D\LL	.	.
16E\	8r	.
16F#\JJ	.	.
16G\LL	4r	.
16A\	.	.
16B\	.	.
16c\JJ	.	.
=43	=43	=43
8d\	8r	.
8r	8gg#X\ 8bb\	.
4r	8aa\L 8cccn\	.
.	8gg#\J 8bb\	.
!!LO:LB:g=original
=44	=44	=44
16r	8aa\ 8cccn\	f
16D\LL	.	.
16E\	8r	.
16F#\JJ	.	.
16G\LL	4r	.
16A\	.	.
16B\	.	.
16c\JJ	.	.
=45	=45	=45
8d\	8r	.
8r	8gg#X\ 8bb\	.
4r	8aa\L 8cccn\	.
.	8gg#\J 8bb\	.
=46	=46	=46
8r	8aa\L 8ccc\	f
8D\L 8d\	8dd\ 8ff#\ 8aa\ 8ccc\	.
8AA\ 8A\	8dd\ 8ff#\ 8aa\ 8ccc\	.
8FF#\J 8F#\	8dd\J 8ff#\ 8aa\ 8ccc\	.
=47	=47	=47
8DD/L 8D/	8dd\L 8ff#\ 8aa\ 8ccc\	.
8AA/ 8A/	8dd\ 8ff#\ 8aa\ 8ccc\	.
8FF#/ 8F#/	8dd\ 8ff#\ 8aa\ 8ccc\	.
8EE-X/J 8E-X/	8ee-X\J 8ff#\ 8aa\ 8ccc\	.
=48	=48	=48
*	*2\right	*
2DD/;< 2D/	2dd;>\ 2ff#\ 2aa\ 2ccc\	.
==	==	==
*-	*-	*-
!!!system-decoration: {(s1,s2)}
!!!RDF**kern: > = above
!!!RDF**kern: < = below
!!!EED: Leszek Kubiak
!!!EST: 2020-09-18
!!!AIN: 1 piano
!!!ENC: Andrzej Borzym
!!!END: 2020-06-02
